Origami/64x64/apps/bpython.svg

<svg width="64" height="64" version="1" xmlns="http://www.w3.org/2000/svg">
 <path d="m18.083334 5.0003376c-6.140801 0-11.083334 3.5308332-11.083334 7.9166664v11.083332 16.999666h23.333058 4.75c4.385832 0 7.916668-4.942532 7.916668-11.083332v-2.166258c0-6.1408-3.530836-10.750076-7.916668-10.750076h-14.083058v6.000076h5.885678 3.342596c2.606438 0 4.771452 1.883934 4.771452 4.223048v3.220164c0 2.33911-2.165012 4.556378-4.771452 4.556378h-11.228274v-4.556378-2.22024-2.95638-1.266668-6.333332-2.666668h12v-2.083332c0-4.3858332-4.701186-7.9166664-10.841987-7.9166664z" style="opacity:.2"/>
 <path d="m32.083334 61c-6.140802 0-11.083334-3.530832-11.083334-7.916666v-11.083332-16.999666h23.333058 4.75c4.385832 0 7.916668 4.942532 7.916668 11.083332v2.166258c0 6.1408-3.530836 10.750076-7.916668 10.750076h-14.083058v-6.000076h5.885678 3.342596c2.606438 0 4.771452-1.883934 4.771452-4.223048v-3.220164c0-2.33911-2.165012-4.556378-4.771452-4.556378h-11.228274v4.556378 2.22024 2.95638 1.266668 6.333332 2.666668h12v2.083332c0 4.385834-4.701186 7.916666-10.841988 7.916666z" style="opacity:.2"/>
 <path d="m18.083334 4.0000016c-6.140801 0-11.083334 3.5308332-11.083334 7.9166664v11.083332 16.999666h23.333058 4.75c4.385832 0 7.916668-4.942532 7.916668-11.083332v-2.166258c0-6.1408-3.530836-10.750076-7.916668-10.750076h-14.083058v6.000076h5.885678 3.342596c2.606438 0 4.771452 1.883934 4.771452 4.223048v3.220164c0 2.33911-2.165012 4.556378-4.771452 4.556378h-11.228274v-4.556378-2.22024-2.95638-1.266668-6.333332-2.666668h12v-2.083332c0-4.3858332-4.701186-7.9166664-10.841987-7.9166664z" style="fill:#4795d1"/>
 <path d="M 18.083984 4 C 11.943183 4 7 7.5301824 7 11.916016 L 7 12.917969 C 7 8.5321355 11.943183 5 18.083984 5 L 20.158203 5 C 26.299004 5 31 8.5321355 31 12.917969 L 31 11.916016 C 31 7.5301824 26.299004 4 20.158203 4 L 18.083984 4 z M 21 16 L 21 17 L 35.083984 17 C 39.469816 17 43 21.6092 43 27.75 L 43 26.75 C 43 20.6092 39.469816 16 35.083984 16 L 21 16 z M 35 29.443359 C 35 31.782469 32.834956 34 30.228516 34 L 19 34 L 19 35 L 30.228516 35 C 32.834956 35 35 32.782469 35 30.443359 L 35 29.443359 z" style="fill:#ffffff;opacity:.2"/>
 <path d="m24.5 7.9999995a1.5000007 1.5000007 0 0 0 -1.5 1.5000009 1.5000007 1.5000007 0 0 0 1.5 1.5000006 1.5000007 1.5000007 0 0 0 1.5 -1.5000006 1.5000007 1.5000007 0 0 0 -1.5 -1.5000009z" style="opacity:.2"/>
 <path d="m24.5 7.0000005a1.5000007 1.5000007 0 0 0 -1.5 1.5000009 1.5000007 1.5000007 0 0 0 1.5 1.5000006 1.5000007 1.5000007 0 0 0 1.5 -1.5000006 1.5000007 1.5000007 0 0 0 -1.5 -1.5000009z" style="fill:#ffffff"/>
 <path d="m32.083334 59.999664c-6.140801 0-11.083334-3.530833-11.083334-7.916666v-11.083332-16.999666h23.333058 4.75c4.385832 0 7.916668 4.942532 7.916668 11.083332v2.166258c0 6.1408-3.530836 10.750076-7.916668 10.750076h-14.083058v-6.000076h5.885678 3.342596c2.606438 0 4.771452-1.883934 4.771452-4.223048v-3.220164c0-2.33911-2.165012-4.556378-4.771452-4.556378h-11.228274v4.556378 2.22024 2.95638 1.266668 6.333332 2.666668h12v2.083332c0 4.385833-4.701186 7.916666-10.841987 7.916666z" style="fill:#ffc851"/>
 <path d="m21 24v1h23.333984 4.75c4.385832 0 7.916016 4.943184 7.916016 11.083984v-1c0-6.1408-3.530184-11.083984-7.916016-11.083984h-4.75-23.333984zm28 13.777344c0 2.339114-2.165046 4.222656-4.771484 4.222656h-3.34375-5.884766v1h5.884766 3.34375c2.606438 0 4.771484-1.883542 4.771484-4.222656v-1zm-16 12.222656v1h12v-1h-12z" style="fill:#ffffff;opacity:.2"/>
 <path d="M 38.5,58 A 1.5000007,1.5000007 0 0 1 37,56.5 1.5000007,1.5000007 0 0 1 38.5,54.999999 1.5000007,1.5000007 0 0 1 40,56.5 1.5000007,1.5000007 0 0 1 38.5,58 Z" style="opacity:.2"/>
 <path d="m38.5 57.000001a1.5000007 1.5000007 0 0 1 -1.5 -1.5 1.5000007 1.5000007 0 0 1 1.5 -1.500001 1.5000007 1.5000007 0 0 1 1.5 1.500001 1.5000007 1.5000007 0 0 1 -1.5 1.5z" style="fill:#ffffff"/>
 <path d="m34.265625 24c0.457503 0.64639 0.734375 1.403017 0.734375 2.222656v3.220703c0 0.187675-0.035516 0.371617-0.0625 0.556641h8.023438c0.024518-0.356689 0.039062-0.71799 0.039062-1.083984v-2.166016c0-0.960192-0.095389-1.876463-0.257812-2.75z" style="fill:#4795d1"/>
</svg>

<svg xmlns="http://www.w3.org/2000/svg" width="64" height="64" version="1">
 <path style="opacity:0.2" d="M 18.083334,5.0003376 C 11.942533,5.0003376 7,8.5311708 7,12.917004 l 0,11.083332 0,16.999666 23.333058,0 4.75,0 c 4.385832,0 7.916668,-4.942532 7.916668,-11.083332 l 0,-2.166258 c 0,-6.1408 -3.530836,-10.750076 -7.916668,-10.750076 l -14.083058,0 0,6.000076 5.885678,0 3.342596,0 c 2.606438,0 4.771452,1.883934 4.771452,4.223048 l 0,3.220164 c 0,2.33911 -2.165012,4.556378 -4.771452,4.556378 l -11.228274,0 0,-4.556378 0,-2.22024 0,-2.95638 0,-1.266668 0,-6.333332 0,-2.666668 12,0 0,-2.083332 C 31,8.5311708 26.298814,5.0003376 20.158013,5.0003376 Z"/>
 <path style="opacity:0.2" d="M 32.083334,61 C 25.942532,61 21,57.469168 21,53.083334 l 0,-11.083332 0,-16.999666 23.333058,0 4.75,0 c 4.385832,0 7.916668,4.942532 7.916668,11.083332 l 0,2.166258 c 0,6.1408 -3.530836,10.750076 -7.916668,10.750076 l -14.083058,0 0,-6.000076 5.885678,0 3.342596,0 c 2.606438,0 4.771452,-1.883934 4.771452,-4.223048 l 0,-3.220164 c 0,-2.33911 -2.165012,-4.556378 -4.771452,-4.556378 l -11.228274,0 0,4.556378 0,2.22024 0,2.95638 0,1.266668 0,6.333332 0,2.666668 12,0 0,2.083332 C 45,57.469168 40.298814,61 34.158012,61 Z"/>
 <path style="fill:#4795d1" d="M 18.083334,4.0000016 C 11.942533,4.0000016 7,7.5308348 7,11.916668 L 7,23 l 0,16.999666 23.333058,0 4.75,0 c 4.385832,0 7.916668,-4.942532 7.916668,-11.083332 l 0,-2.166258 C 42.999726,20.609276 39.46889,16 35.083058,16 L 21,16 l 0,6.000076 5.885678,0 3.342596,0 c 2.606438,0 4.771452,1.883934 4.771452,4.223048 l 0,3.220164 c 0,2.33911 -2.165012,4.556378 -4.771452,4.556378 l -11.228274,0 0,-4.556378 0,-2.22024 0,-2.95638 L 19,23 19,16.666668 19,14 31,14 31,11.916668 C 31,7.5308348 26.298814,4.0000016 20.158013,4.0000016 Z"/>
 <path style="fill:#ffffff;opacity:0.2" d="M 18.083984 4 C 11.943183 4 7 7.5301824 7 11.916016 L 7 12.917969 C 7 8.5321355 11.943183 5 18.083984 5 L 20.158203 5 C 26.299004 5 31 8.5321355 31 12.917969 L 31 11.916016 C 31 7.5301824 26.299004 4 20.158203 4 L 18.083984 4 z M 21 16 L 21 17 L 35.083984 17 C 39.469816 17 43 21.6092 43 27.75 L 43 26.75 C 43 20.6092 39.469816 16 35.083984 16 L 21 16 z M 35 29.443359 C 35 31.782469 32.834956 34 30.228516 34 L 19 34 L 19 35 L 30.228516 35 C 32.834956 35 35 32.782469 35 30.443359 L 35 29.443359 z"/>
 <path style="opacity:0.2" d="M 24.5,7.9999995 A 1.5000007,1.5000007 0 0 0 23,9.5000004 1.5000007,1.5000007 0 0 0 24.5,11.000001 1.5000007,1.5000007 0 0 0 26,9.5000004 1.5000007,1.5000007 0 0 0 24.5,7.9999995 Z"/>
 <path style="fill:#ffffff" d="M 24.5,7.0000005 A 1.5000007,1.5000007 0 0 0 23,8.5000014 1.5000007,1.5000007 0 0 0 24.5,10.000002 1.5000007,1.5000007 0 0 0 26,8.5000014 1.5000007,1.5000007 0 0 0 24.5,7.0000005 Z"/>
 <path style="fill:#ffc851" d="M 32.083334,59.999664 C 25.942533,59.999664 21,56.468831 21,52.082998 L 21,40.999666 21,24 l 23.333058,0 4.75,0 c 4.385832,0 7.916668,4.942532 7.916668,11.083332 l 0,2.166258 c 0,6.1408 -3.530836,10.750076 -7.916668,10.750076 l -14.083058,0 0,-6.000076 5.885678,0 3.342596,0 c 2.606438,0 4.771452,-1.883934 4.771452,-4.223048 l 0,-3.220164 C 48.999726,32.217268 46.834714,30 44.228274,30 L 33,30 l 0,4.556378 0,2.22024 0,2.95638 0,1.266668 0,6.333332 0,2.666668 12,0 0,2.083332 c 0,4.385833 -4.701186,7.916666 -10.841987,7.916666 z"/>
 <path style="fill:#ffffff;opacity:0.2" d="M 21 24 L 21 25 L 44.333984 25 L 49.083984 25 C 53.469816 25 57 29.943184 57 36.083984 L 57 35.083984 C 57 28.943184 53.469816 24 49.083984 24 L 44.333984 24 L 21 24 z M 49 37.777344 C 49 40.116458 46.834954 42 44.228516 42 L 40.884766 42 L 35 42 L 35 43 L 40.884766 43 L 44.228516 43 C 46.834954 43 49 41.116458 49 38.777344 L 49 37.777344 z M 33 50 L 33 51 L 45 51 L 45 50 L 33 50 z"/>
 <path style="opacity:0.2" d="M 38.5,58 A 1.5000007,1.5000007 0 0 1 37,56.5 1.5000007,1.5000007 0 0 1 38.5,54.999999 1.5000007,1.5000007 0 0 1 40,56.5 1.5000007,1.5000007 0 0 1 38.5,58 Z"/>
 <path style="fill:#ffffff" d="m 38.5,57.000001 a 1.5000007,1.5000007 0 0 1 -1.5,-1.5 A 1.5000007,1.5000007 0 0 1 38.5,54 a 1.5000007,1.5000007 0 0 1 1.5,1.500001 1.5000007,1.5000007 0 0 1 -1.5,1.5 z"/>
 <path style="fill:#4795d1" d="M 34.265625,24 C 34.723128,24.64639 35,25.403017 35,26.222656 l 0,3.220703 C 35,29.631034 34.964484,29.814976 34.9375,30 l 8.023438,0 C 42.985456,29.643311 43,29.28201 43,28.916016 L 43,26.75 C 43,25.789808 42.904611,24.873537 42.742188,24 Z"/>
</svg>
